!!!COM: Gaspar van Weerbeke
!!!CDT: ~1450-~1517
!!!OPR: In honorem sancti spiritus
!!!OTL: Factus est repente
!!!OMV: 6
!!!AGN: Motet; Motet cycle
!!!SCT: Gas0303f
!!!SCA: Gas0303f
!!!voices: 4
**kern	**text	**kern	**text	**kern	**text	**kern	**text
*part4	*part4	*part3	*part3	*part2	*part2	*part1	*part1
*staff4	*staff4	*staff3	*staff3	*staff2	*staff2	*staff1	*staff1
*I"Bassus	*	*I"Tenor	*	*I"Altus	*	*I"Superius	*
*I'B	*	*I'T	*	*I'A	*	*I'S	*
*clefF4	*	*clefGv2	*	*clefGv2	*	*clefG2	*
*k[]	*	*k[]	*	*k[]	*	*k[]	*
*M2/2	*	*M2/2	*	*M2/2	*	*M2/2	*
*omet(C|)	*	*omet(C|)	*	*omet(C|)	*	*omet(C|)	*
=1	=1	=1	=1	=1	=1	=1	=1
1r	.	1r	.	1G	Fac-	1g	Fac-
=2	=2	=2	=2	=2	=2	=2	=2
1r	.	1r	.	2G	-tus	4.g	-tus
.	.	.	.	.	.	8e	.
.	.	.	.	2d	.	4.f	.
.	.	.	.	.	.	8g	.
=3	=3	=3	=3	=3	=3	=3	=3
1r	.	1r	.	2d	est	8aL	.
.	.	.	.	.	.	8b-jJ	.
.	.	.	.	.	.	4.a	.
.	.	.	.	2d	re-	.	.
.	.	.	.	.	.	8gL	.
.	.	.	.	.	.	8f	.
.	.	.	.	.	.	8eJ	.
=4	=4	=4	=4	=4	=4	=4	=4
1r	.	1r	.	1d	-pen-	4f	.
.	.	.	.	.	.	4g	.
.	.	.	.	.	.	2a	.
=5	=5	=5	=5	=5	=5	=5	=5
1r	.	1G	Fac-	2G	-te	1b	est
.	.	.	.	[2d	de	.	.
=6	=6	=6	=6	=6	=6	=6	=6
*	*	*lig	*	*	*	*	*
1GG	Fac-	2G	-tus	4d]	.	2b	re-
.	.	.	.	4c	.	.	.
.	.	[2d	.	4B	.	[2b	-pen-
.	.	.	.	4A	.	.	.
=7	=7	=7	=7	=7	=7	=7	=7
2GG	-tus	4d]	.	2G	.	4b]	.
*	*	*Xlig	*	*	*	*	*
.	.	8cL	.	.	.	8aL	.
.	.	8BJ	.	.	.	8gJ	.
2D	.	2A	.	4F	.	4a	.
.	.	.	.	4D	.	[4f	.
!!LO:LB:g=original
=8	=8	=8	=8	=8	=8	=8	=8
2D	est	4A	est	4.d	cae-	4f]	.
.	.	4B	.	.	.	4g	.
.	.	.	.	8e	.	.	.
2D	re-	4A	.	[2f	.	4a	.
.	.	[4d	re-	.	.	4b-j	.
=9	=9	=9	=9	=9	=9	=9	=9
1D	-pen-	4d]	.	4f]	.	4a	.
.	.	8cL	.	4.d	.	2g	.
.	.	8BJ	.	.	.	.	.
.	.	2A	-pen-	.	.	.	.
.	.	.	.	8cL	.	.	.
.	.	.	.	8B	.	4f#i	.
.	.	.	.	8AJ	.	.	.
=10	=10	=10	=10	=10	=10	=10	=10
1GG	-te	1G	-te	2B	.	2g	-te
.	.	.	.	2d	.	4r	.
.	.	.	.	.	.	4g	de
=11	=11	=11	=11	=11	=11	=11	=11
1r	.	2F	de	2d	-lo	4a	cae-
.	.	.	.	.	.	4f	.
.	.	2E	.	2c	.	2g	.
=12	=12	=12	=12	=12	=12	=12	=12
2D	de	8DL	cae-	2.f	so-	4f	-lo
.	.	8E	.	.	.	.	.
.	.	8F	.	.	.	2a	so-
.	.	8GJ	.	.	.	.	.
2D	cae-	4A	.	.	.	.	.
.	.	4B	.	8eL	.	8gL	.
.	.	.	.	8dJ	.	8fJ	.
=13	=13	=13	=13	=13	=13	=13	=13
2C	-lo	2c	.	2e	.	4e	.
.	.	.	.	.	.	4g	.
*lig	*	*	*	*	*	*	*
2F	so-	2A	-lo	4.c	.	4f	.
.	.	.	.	.	.	8eL	.
.	.	.	.	8d	.	8dJ	.
=14	=14	=14	=14	=14	=14	=14	=14
2E	.	4r	.	8eL	.	4c	.
.	.	.	.	8d	.	.	.
.	.	4C	so-	8c	.	4e	.
.	.	.	.	8BJ	.	.	.
*Xlig	*	*	*	*	*	*	*
2F	.	2D	.	4A	.	4d	.
.	.	.	.	[4d	.	[4f	.
!!LO:PB:g=original
=15	=15	=15	=15	=15	=15	=15	=15
2D	.	2F	.	4d]	.	4f]	.
.	.	.	.	2.A	.	2d	.
2AA	-nus	2E	.	.	.	.	.
.	.	.	.	.	.	4c#i	.
=16	=16	=16	=16	=16	=16	=16	=16
1r	.	1D	-nus	1A	-nus	2d	-nus
.	.	.	.	.	.	4r	.
.	.	.	.	.	.	4d	ad-
=17	=17	=17	=17	=17	=17	=17	=17
2r	.	2E	ad-	1r	.	2c	-ve-
2D	ad-	4D	-ve-	.	.	2d	-ni-
.	.	4F	.	.	.	.	.
=18	=18	=18	=18	=18	=18	=18	=18
2C	-ve-	4E	-ni-	2r	.	2e	-en-
.	.	4G	.	.	.	.	.
*lig	*	*	*	*	*	*	*
2D	-ni-	2F	-en-	2A	ad-	2d	-tis
=19	=19	=19	=19	=19	=19	=19	=19
2E	.	4E	-tis	2G	-ve-	8cL	spi-
.	.	.	.	.	.	8d	.
.	.	4.G	spi-	.	.	8e	.
.	.	.	.	.	.	8fJ	.
*Xlig	*	*	*	*	*	*	*
2E	-en-	.	.	2B	-ni-	[2g	.
.	.	8FL	.	.	.	.	.
.	.	8E	.	.	.	.	.
.	.	8DJ	.	.	.	.	.
=20	=20	=20	=20	=20	=20	=20	=20
*lig	*	*	*	*	*	*	*
2E	-tis	4C	.	2c	-en-	4g]	.
.	.	4G	.	.	.	8fL	.
.	.	.	.	.	.	8eJ	.
2D	.	4.A	.	2d	-tis	2f	.
.	.	8B	.	.	.	.	.
*Xlig	*	*	*	*	*	*	*
=21	=21	=21	=21	=21	=21	=21	=21
*lig	*	*	*	*	*	*	*
2C	spi-	2c	.	2e	spi-	4.e	-ri-
.	.	.	.	.	.	8f	.
2E	.	[2G	-ri-	2c	-ri-	4.g	.
.	.	.	.	.	.	8a	.
*Xlig	*	*	*	*	*	*	*
!!LO:LB:g=original
=22	=22	=22	=22	=22	=22	=22	=22
1D	-ri-	2G]	.	1d	-tus	4b	.
.	.	.	.	.	.	2cc	.
.	.	2F	.	.	.	.	.
.	.	.	.	.	.	4b	.
=23	=23	=23	=23	=23	=23	=23	=23
2C	-tus	2G	-tus	4e	ve-	2cc	-tus
.	.	.	.	4c	.	.	.
2r	.	2r	.	4.A	-he-	2r	.
.	.	.	.	8B	.	.	.
=24	=24	=24	=24	=24	=24	=24	=24
*	*	*	*	*lig	*	*	*
1r	.	1r	.	2c	-men-	2cc	ve-
.	.	.	.	2d	.	4a	-he-
.	.	.	.	.	.	4b	.
*	*	*	*	*Xlig	*	*	*
=25	=25	=25	=25	=25	=25	=25	=25
1r	.	2r	.	2c	-tis,	4.cc	-men-
.	.	.	.	.	.	8b	.
.	.	2c	ve-	2r	.	4g	.
.	.	.	.	.	.	[4a	.
=26	=26	=26	=26	=26	=26	=26	=26
2r	.	4A	-he-	1r	.	4a]	.
.	.	4B	.	.	.	8gL	.
.	.	.	.	.	.	8fJ	.
2C	ve-	2c	-men-	.	.	2e	-tis,
=27	=27	=27	=27	=27	=27	=27	=27
4AA	-he-	4c	-tis,	1r	.	1r	.
4BB	.	8BL	.	.	.	.	.
.	.	8AJ	.	.	.	.	.
2C	-men-	4G	.	.	.	.	.
.	.	[4c	u-	.	.	.	.
=28	=28	=28	=28	=28	=28	=28	=28
2D	.	4c]	.	1r	.	1r	.
.	.	4B	.	.	.	.	.
2C	-tis,	2c	-bi-	.	.	.	.
!!LO:LB:g=original
=29	=29	=29	=29	=29	=29	=29	=29
2.C	u-	2G	-e-	1r	.	1r	.
.	.	4E	.	.	.	.	.
4BB	.	[4G	.	.	.	.	.
=30	=30	=30	=30	=30	=30	=30	=30
2C	-bi-	4G]	.	1r	.	1r	.
.	.	8FL	.	.	.	.	.
.	.	8EJ	.	.	.	.	.
*lig	*	*	*	*	*	*	*
2D	-e-	4F	.	.	.	.	.
.	.	4D	.	.	.	.	.
=31	=31	=31	=31	=31	=31	=31	=31
2E	.	4C	-rant	1r	.	1r	.
.	.	4G	se-	.	.	.	.
*Xlig	*	*	*	*	*	*	*
2D	.	4A	.	.	.	.	.
.	.	4B	.	.	.	.	.
=32	=32	=32	=32	=32	=32	=32	=32
2C	-rant	4.c	-den-	1r	.	1r	.
.	.	8B	.	.	.	.	.
4C	se-	4G	.	.	.	.	.
[4AA	-den-	[4c	.	.	.	.	.
=33	=33	=33	=33	=33	=33	=33	=33
8AAL]	.	8cL]	.	1r	.	1r	.
8BBJ	.	8B	.	.	.	.	.
4.C	.	8A	.	.	.	.	.
.	.	8GJ	.	.	.	.	.
.	.	4A	.	.	.	.	.
8BB	.	.	.	.	.	.	.
4GG	.	[4B	.	.	.	.	.
=34	=34	=34	=34	=34	=34	=34	=34
4BB	.	8BL]	.	1r	.	1r	.
.	.	8AJ	.	.	.	.	.
4C	.	2G	.	.	.	.	.
2AA	.	.	.	.	.	.	.
.	.	4F#i	.	.	.	.	.
=35	=35	=35	=35	=35	=35	=35	=35
1GG	-tes,	1G	-tes,	2d	Al-	2r	.
.	.	.	.	4e	-le-	2g	Al-
.	.	.	.	4d	.	.	.
!!LO:LB:g=original
=36	=36	=36	=36	=36	=36	=36	=36
*lig	*	*	*	*	*	*	*
2GG	Al-	1r	.	4.g	-lu-	2b	.
.	.	.	.	16fLL	.	.	.
.	.	.	.	16eJJ	.	.	.
2BB	.	.	.	4.d	.	8bL	-le-
.	.	.	.	.	.	8a	.
.	.	.	.	.	.	8g	.
.	.	.	.	8c	.	8fJ	.
*Xlig	*	*	*	*	*	*	*
=37	=37	=37	=37	=37	=37	=37	=37
*lig	*	*	*	*	*	*	*
2BB	-le-	1r	.	8BL	.	2g	.
.	.	.	.	8AJ	.	.	.
.	.	.	.	4G	.	.	.
2AA	.	.	.	2c	.	4a	.
.	.	.	.	.	.	4cc	.
*Xlig	*	*	*	*	*	*	*
=38	=38	=38	=38	=38	=38	=38	=38
*lig	*	*	*	*	*	*	*
2BB	.	2r	.	2d	.	4b	.
.	.	.	.	.	.	2g	-lu-
*	*	*lig	*	*	*edit	*	*
2C	.	2G	Al-	2e	-ia,	.	.
.	.	.	.	.	.	8fL	.
.	.	.	.	.	.	8eJ	.
*Xlig	*	*	*	*	*	*	*
=39	=39	=39	=39	=39	=39	=39	=39
*	*	*	*	*	*	*	*edit
2BB	.	2B	.	4r	.	2d	-ia,
.	.	.	.	2d	al-	.	.
*lig	*	*Xlig	*	*	*	*	*
*	*	*lig	*	*	*	*	*
2GG	-lu-	2B	-le-	.	.	4r	.
.	.	.	.	[4g	-le-	4b	al-
=40	=40	=40	=40	=40	=40	=40	=40
2AA	.	2A	.	4g]	.	4.cc	-le-
.	.	.	.	4f	.	.	.
.	.	.	.	.	.	8a	.
*Xlig	*	*Xlig	*	*	*	*	*
*	*	*lig	*	*	*	*	*
2GG	-ia,	2B	.	4g	.	2dd	.
.	.	.	.	4d	.	.	.
=41	=41	=41	=41	=41	=41	=41	=41
2r	.	2c	.	4.e	.	4cc	.
.	.	.	.	.	.	8bL	.
.	.	.	.	8f	.	8aJ	.
*	*	*Xlig	*	*	*	*	*
*	*edit	*	*	*	*	*	*
[2G	al-	2B	.	2g	.	4g	.
.	.	.	.	.	.	[4b	-lu-
=42	=42	=42	=42	=42	=42	=42	=42
4G]	.	4G	-lu-	4d	-lu-	4b]	.
4F	.	4c	.	4f	.	4a	.
4G	-le-	4B	.	4e	.	4g	.
4F	.	4A	.	4f	.	[4a	.
=43	=43	=43	=43	=43	=43	=43	=43
4G	-lu-	4B	.	8dL	.	4a]	.
.	.	.	.	8BJ	.	.	.
4E	.	4G	.	4c	.	2g	.
2D	.	2A	.	2d	.	.	.
.	.	.	.	.	.	4f#i	.
!!LO:PB:g=original
=44	=44	=44	=44	=44	=44	=44	=44
*M3/2	*	*M3/2	*	*M3/2	*	*M3/2	*
*omet(O/3)	*	*omet(O/3)	*	*omet(O/3)	*	*omet(O/3)	*
!!LO:TX:a:t=O/3
*	*	*	*	*	*Xedit	*	*Xedit
1.GG	-ia.	1.G	-ia.	1.B	-ia.	1.g	-ia.
=45	=45	=45	=45	=45	=45	=45	=45
*	*Xedit	*	*	*	*	*	*
1GG	Et	1.r	.	1.r	.	1.r	.
2AA	re-	.	.	.	.	.	.
=46	=46	=46	=46	=46	=46	=46	=46
1C	-ple-	1.r	.	2.G	Et	1.r	.
.	.	.	.	4A	.	.	.
2D	.	.	.	2B	re-	.	.
=47	=47	=47	=47	=47	=47	=47	=47
1E	-ti	1G	Et	1c	-ple-	1.r	.
2D	sunt	2A	re-	2d	.	.	.
=48	=48	=48	=48	=48	=48	=48	=48
*col	*	*	*	*	*	*	*
1C	om-	2.c	-ple-	1e	-ti	1.r	.
.	.	4B	.	.	.	.	.
[2D	.	2A	.	2d	sunt	.	.
=49	=49	=49	=49	=49	=49	=49	=49
*	*	*	*	*	*	*lig	*
*	*	*	*	*	*edit	*	*
2D]	.	1d	.	1A	om-	2f	Om-
1E	.	.	.	.	.	2g	.
*Xcol	*	*	*	*	*	*Xlig	*
.	.	2c	-ti	2G	.	2e	.
=50	=50	=50	=50	=50	=50	=50	=50
*	*	*	*	*	*	*col	*
1.D	-nes	1.d	sunt	1A	-nes,	2.f	.
.	.	.	.	.	.	4g	.
.	.	.	.	2r	.	[2a	.
=51	=51	=51	=51	=51	=51	=51	=51
*	*	*lig	*	*	*	*	*
*	*	*	*	*col	*Xedit	*	*
1.r	.	2D	-om-	[1.d	om-	2a]	.
.	.	2G	.	.	.	2b	.
*	*	*Xlig	*	*	*	*	*
.	.	2F	.	.	.	2a	.
=52	=52	=52	=52	=52	=52	=52	=52
*	*	*lig	*	*	*	*Xcol	*
1.r	.	2D	.	2d]	.	1dd	.
.	.	1A	.	1e	.	.	.
.	.	.	.	.	.	2cc#i	-nes
*	*	*Xlig	*	*Xcol	*	*	*
=53	=53	=53	=53	=53	=53	=53	=53
1.r	.	1D	-nes	1.d	-nes	2.dd	spi-
.	.	.	.	.	.	4b	.
.	.	2F	.	.	.	4a	.
.	.	.	.	.	.	4b	.
!!LO:LB:g=original
=54	=54	=54	=54	=54	=54	=54	=54
*	*	*col	*	*col	*	*	*
1.r	.	1C	spi-	1e	spi-	4cc	.
.	.	.	.	.	.	4b	.
.	.	.	.	.	.	4a	.
.	.	.	.	.	.	4g	.
.	.	2D	-ri-	2d	-ri-	2f	-ri-
=55	=55	=55	=55	=55	=55	=55	=55
1.r	.	2E	-tu	2c	-tu	2e	-tu
.	.	1F	.	1d	.	1a	sanc-
*	*	*Xcol	*	*Xcol	*	*	*
=56	=56	=56	=56	=56	=56	=56	=56
*col	*	*	*	*	*	*	*
1E	spi-	4G	sanc-	1e	.	2.g	.
.	.	4A	.	.	.	.	.
.	.	4B	.	.	.	.	.
.	.	4c	.	.	.	4e	.
2D	-ri-	4d	.	2r	.	4f	.
.	.	4B	.	.	.	4e	.
=57	=57	=57	=57	=57	=57	=57	=57
*	*	*lig	*	*lig	*	*	*
2C	-tu	2c	.	2e	sanc-	2.g	.
.	.	.	.	.	.	.	.
1D	sanc-	1A	.	1d	.	.	.
.	.	.	.	.	.	4e	.
.	.	.	.	.	.	2f#i	.
*Xcol	*	*Xlig	*	*Xlig	*	*	*
=58	=58	=58	=58	=58	=58	=58	=58
1E	-to	1G	-to	1B	-to	1g	-to
2D	lo-	2F	lo-	2r	.	2r	.
=59	=59	=59	=59	=59	=59	=59	=59
1C	-quen-	4E	-quen-	1.r	.	1.r	.
.	.	4F	.	.	.	.	.
.	.	4G	.	.	.	.	.
.	.	4A	.	.	.	.	.
2D	.	2B	.	.	.	.	.
=60	=60	=60	=60	=60	=60	=60	=60
*lig	*	*	*	*	*	*	*
2C	.	1A	.	1.r	.	1.r	.
1BB	.	.	.	.	.	.	.
.	.	2G	.	.	.	.	.
*Xlig	*	*	*	*	*	*	*
=61	=61	=61	=61	=61	=61	=61	=61
*	*	*lig	*	*	*	*	*
1AA	-tes	2A	-tes	1.r	.	1.r	.
.	.	2c	.	.	.	.	.
*	*	*Xlig	*	*	*	*	*
2GG	mag-	2B	mag-	.	.	.	.
=62	=62	=62	=62	=62	=62	=62	=62
1BB	-na-	2.d	-na-	1.r	.	1.r	.
.	.	4c	-li-	.	.	.	.
2C	.	2A	-a	.	.	.	.
!!LO:LB:g=original
=63	=63	=63	=63	=63	=63	=63	=63
*lig	*	*	*	*	*	*	*
2BB	-li-	1G	de-	1.r	.	1.r	.
2GG	.	.	.	.	.	.	.
*Xlig	*	*	*	*	*	*	*
2AA	-a	4F	.	.	.	.	.
.	.	4E	.	.	.	.	.
=64	=64	=64	=64	=64	=64	=64	=64
*col	*	*	*	*	*	*	*
1BB	de-	1D	.	1.r	.	1.r	.
[2GG	.	4E	.	.	.	.	.
.	.	4D	.	.	.	.	.
=65	=65	=65	=65	=65	=65	=65	=65
2GG]	.	1G	.	1.r	.	1.r	.
1AA	.	.	.	.	.	.	.
*Xcol	*	*	*	*	*	*	*
.	.	2F#i	.	.	.	.	.
=66	=66	=66	=66	=66	=66	=66	=66
1.GG	-i,	1G	-i,	1d	Al-	2r	.
.	.	.	.	.	.	2r	.
.	.	2r	.	2e	.	2g	Al-
=67	=67	=67	=67	=67	=67	=67	=67
*	*	*	*	*lig	*	*	*
1.r	.	1G	Al-	2d	-le-	1b	-le-
.	.	.	.	2g	.	.	.
*	*	*	*	*Xlig	*	*	*
.	.	2A	.	2e	.	2cc	.
=68	=68	=68	=68	=68	=68	=68	=68
1.r	.	1B	-le-	1d	-lu-	1dd	-lu-
.	.	2c	.	2e	.	2cc	.
=69	=69	=69	=69	=69	=69	=69	=69
1.r	.	1d	-lu-	2.f	.	1a	-ia,
.	.	.	.	4d	.	.	.
.	.	2c	.	2e	.	2r	.
=70	=70	=70	=70	=70	=70	=70	=70
1D	Al-	1A	-ia,	1f	.	1a	al-
2BB	.	2r	.	2g	.	2b	.
=71	=71	=71	=71	=71	=71	=71	=71
*	*	*	*	*col	*	*	*
1C	-le-	1.r	.	1e	.	1g	-le-
2D	.	.	.	[2d	.	2f	.
=72	=72	=72	=72	=72	=72	=72	=72
1BB	-lu-	1d	al-	2d]	.	2d	.
*	*	*	*	*	*edit	*	*
.	.	.	.	1g	-ia,	1dd	-lu-
*	*	*	*	*Xcol	*	*	*
2GG	-ia,	2B	.	.	.	.	.
!!LO:LB:g=original
=73	=73	=73	=73	=73	=73	=73	=73
1.r	.	1c	-le-	1.r	.	2cc	.
.	.	.	.	.	.	1a	.
.	.	2d	.	.	.	.	.
=74	=74	=74	=74	=74	=74	=74	=74
*	*	*	*	*	*Xedit	*	*
1G	al-	1B	-lu-	1d	al-	2b	.
.	.	.	.	.	.	1g	.
2E	.	4A	.	2e	.	.	.
.	.	4G	.	.	.	.	.
=75	=75	=75	=75	=75	=75	=75	=75
*	*	*	*	*lig	*	*	*
*	*	*	*edit	*	*edit	*col	*
1F	-le-	1A	-ia,	2c	-le-	1cc	.
.	.	.	.	2f	.	.	.
*	*	*	*	*Xlig	*	*	*
2G	.	2B	.	2d	.	[2b	.
=76	=76	=76	=76	=76	=76	=76	=76
*	*	*lig	*	*	*	*	*
1E	-lu-	2G	al-	2.g	-lu-	2b]	.
.	.	2B	.	.	.	2.g	.
.	.	.	.	4f	.	.	.
*	*	*Xlig	*	*	*	*	*
2C	.	2c	.	2e	.	.	.
.	.	.	.	.	.	4e	.
*	*	*	*	*	*	*Xcol	*
=77	=77	=77	=77	=77	=77	=77	=77
*	*	*lig	*	*	*	*lig	*
2.D	.	2A	-le-	2d	.	2f	.
.	.	2.d	.	2.f	.	2.a	.
4E	.	.	.	.	.	.	.
2F	.	.	.	.	.	.	.
*	*	*Xlig	*	*	*	*Xlig	*
.	.	4c	.	4e	.	4g	.
=78	=78	=78	=78	=78	=78	=78	=78
2G	.	2B	-lu-	1d	.	1g	.
*	*edit	*	*Xedit	*	*	*	*
1D	-ia,	1A	.	.	.	.	.
.	.	.	.	2d	-ia,	2f#i	.
=79	=79	=79	=79	=79	=79	=79	=79
2.GG	al-	[1.Gl	-ia.	2.B	al-	[1.gl	-ia.
4AA	.	.	.	4c	.	.	.
2BB	-le-	.	.	2d	-le-	.	.
=80	=80	=80	=80	=80	=80	=80	=80
2.C	-lu-	1.G_	.	2.e	-lu-	1.g_	.
4BB	.	.	.	4d	.	.	.
4C	.	.	.	4e	.	.	.
8BBL	.	.	.	8dL	.	.	.
8AAJ	.	.	.	8cJ	.	.	.
=81	=81	=81	=81	=81	=81	=81	=81
*	*Xedit	*	*	*col	*	*	*
[1.GGl	-ia.	1.G_	.	1B	.	1.g_	.
.	.	.	.	2c	.	.	.
*	*	*	*	*Xcol	*	*	*
=82	=82	=82	=82	=82	=82	=82	=82
*	*	*	*	*	*Xedit	*	*
1.GG]	.	1.G]	.	1.dl	-ia.	1.g]	.
==	==	==	==	==	==	==	==
*-	*-	*-	*-	*-	*-	*-	*-
!!!system-decoration: [*]
!!!RDF**kern: j = editorial accidental, optional, paren up
!!!RDF**kern: i = editorial accidental
!!!RDF**kern: l = terminal breve
!!!PTL: Gaspar van Weerbeke: Collected Works. III. The Motet Cycles
!!!ISBN: 3-7751-2653-8
!!!PPR: American Institute of Musicology
!!!PC#: Corpus Mensurabilis Musicae 106/III
!!!PDT: 1998
!!!PED: Lindmayr-Brandl, Andrea
!!!YEC: Copyright 1994, Lindmayr-Brandl, Andrea
!!!YEM: CC-BY-NC 4.0 (https://creativecommons.org/licenses/by-nc/4.0/legalcode)
!!!EED: Mair-Gruber, Roland
!!!EEV: 2021/11/27
!!!muse2ps: C^@{COM}^i2I150v90,90,90,120c122z18l2700t130
